X:567
T:Kelvingrove
Z:Jack Campin, http://www.campin.me.uk/
F:Jack Campin's Nine-Note Tunebook
% last edit 03-02-2013
M:3/4
L:1/4
Q:3/4=64
K:F
F/G/|A2 c|G2 A|F2 E|D2 C   |D3 |G3 |G3-|G2
F/G/|A2 c|G2 A|F2 E|D2 C   |D3 |F3 |F3-|F2
G/A/|B2 A|B2 c|d3- |d2 A/B/|c2A|G2F|G3-|G2
F/G/|A2 c|G2 A|F2 E|D2 C   |D3 |F3 |F3-|F2|]

